(/Applications/pcbgcode.repo/pcb-gcode.ulp)
(Copyright 2005 - 2012 by John Johnson)
(See readme.txt for licensing terms.)
(This file generated from the board:)
(.../CR78-Controller/eagle/midi_to_cv.brd)
(Current profile is .../pcbgcode.repo/profiles/mach.pp  )
(This file generated 6/8/16 11:04 PM)
(Settings from pcb-machine.h)
(spindle on time = 0.0000)
(spindle speed = 20000.0000)
(tool change at 0.0000  0.0000  1.5000  )
(feed rate xy = F0     )
(feed rate z  = F20    )
(Z Axis Settings)
(  High     Up        Down     Drill)
(0.2500  	0.0500  	-0.0035 	-0.0750 )
(Settings from pcb-defaults.h)
(isolate min = 0.0050)
(isolate max = 0.0200)
(isolate step = 0.0010)
(Generated bottom outlines, bottom drill, )
(Unit of measure: inch)
( Tool|       Size       |  Min Sub |  Max Sub |   Count )
( T01 | 0.800mm 0.0315in | 0.0000in | 0.0000in |       0 )
( T02 | 0.813mm 0.0320in | 0.0000in | 0.0000in |       0 )
( T03 | 0.900mm 0.0354in | 0.0000in | 0.0000in |       0 )
( T04 | 0.914mm 0.0360in | 0.0000in | 0.0000in |       0 )
( T05 | 1.000mm 0.0394in | 0.0000in | 0.0000in |       0 )
( T06 | 1.016mm 0.0400in | 0.0000in | 0.0000in |       0 )
( T07 | 1.200mm 0.0472in | 0.0000in | 0.0000in |       0 )
(Inch Mode)
G20
(Absolute Coordinates)
G90
S20000
G00 Z0.2500  
G00 X0.0000  Y0.0000  
M03
G04 P0.000000
M05
G00 Z1.5000  
M06 T01  ; 0.0315  
G01 Z0.0000  F20    
M06 
G00 Z0.0500  
M03
G04 P0.000000
G82 X-0.9200 Y2.4400  Z-0.0750 F20    R0.0500  P0.020000
G82 X-1.3600 Y2.4400  
G82 X-2.0700 Y2.6600  
G82 X-2.2500 Y2.8500  
G82 X-2.3300 Y2.9500  
G82 X-2.3300 Y2.5900  
G82 X-2.7300 Y2.4934  
G82 X-2.7300 Y2.2966  
G82 X-2.3500 Y2.1700  
G82 X-2.7300 Y2.7366  
G82 X-2.7300 Y2.9334  
G82 X-2.3500 Y1.4200  
G82 X-2.0500 Y1.4200  
G82 X-1.8100 Y1.5800  
M05
G00 Z1.5000  
G00 X0.0000  Y0.0000  
M06 T02  ; 0.0320  
G01 Z0.0000  F20    
M06 
G00 Z0.0500  
M03
G04 P0.000000
G82 X-0.1500 Y0.6000  Z-0.0750 F20    R0.0500  P0.020000
G82 X-0.2400 Y0.7000  
G82 X-0.4000 Y0.7000  
G82 X-0.4000 Y0.6000  
G82 X-0.5300 Y0.4800  
G82 X-0.5000 Y0.4000  
G82 X-0.2300 Y0.4800  
G82 X-0.4000 Y0.8000  
G82 X-0.4000 Y0.9000  
G82 X-0.4000 Y1.0000  
G82 X-0.4000 Y1.1000  
G82 X-0.4000 Y1.2000  
G82 X-0.2400 Y1.0000  
G82 X-0.1500 Y0.9000  
G82 X-0.7000 Y0.9000  
G82 X-0.7000 Y0.8000  
G82 X-0.7000 Y0.7000  
G82 X-0.7000 Y0.6000  
G82 X-0.8000 Y0.6000  
G82 X-0.8000 Y0.4000  
G82 X-0.8000 Y0.9000  
G82 X-0.7000 Y1.0000  
G82 X-0.7000 Y1.1000  
G82 X-0.7000 Y1.2000  
G82 X-0.7150 Y1.4500  
G82 X-0.6400 Y1.6000  
G82 X-0.6500 Y1.7100  
G82 X-0.7500 Y1.7100  
G82 X-0.8500 Y1.7100  
G82 X-0.9500 Y1.7100  
G82 X-0.9400 Y1.6000  
G82 X-0.9050 Y1.4500  
G82 X-1.1000 Y1.4100  
G82 X-1.1000 Y1.3100  
G82 X-1.1000 Y1.2100  
G82 X-1.1000 Y1.1100  
G82 X-1.1000 Y1.0100  
G82 X-1.4000 Y1.0100  
G82 X-1.4000 Y1.1100  
G82 X-1.4000 Y1.2100  
G82 X-1.4000 Y1.3100  
G82 X-1.4000 Y1.4100  
G82 X-1.4000 Y1.5100  
G82 X-1.4000 Y1.6100  
G82 X-1.4000 Y1.7100  
G82 X-1.4000 Y1.8100  
G82 X-1.4000 Y1.9100  
G82 X-1.4000 Y2.0100  
G82 X-1.4000 Y2.1100  
G82 X-1.4000 Y2.2100  
G82 X-1.4000 Y2.3100  
G82 X-1.1000 Y2.3100  
G82 X-1.1000 Y2.2100  
G82 X-1.1000 Y2.1100  
G82 X-1.1000 Y2.0100  
G82 X-1.1000 Y1.9100  
G82 X-1.1000 Y1.8100  
G82 X-1.1000 Y1.7100  
G82 X-1.1000 Y1.6100  
G82 X-1.1000 Y1.5100  
G82 X-0.6750 Y1.9350  
G82 X-0.5000 Y1.9100  
G82 X-0.5000 Y2.0100  
G82 X-0.5000 Y2.1100  
G82 X-0.5000 Y2.2100  
G82 X-0.6750 Y2.2350  
G82 X-0.7750 Y2.1100  
G82 X-0.7750 Y2.4100  
G82 X-0.8700 Y2.5200  
G82 X-0.5700 Y2.5200  
G82 X-0.4500 Y2.4850  
G82 X-0.4900 Y2.7600  
G82 X-0.4900 Y2.8600  
G82 X-0.1500 Y2.4850  
G82 X-0.2000 Y2.2100  
G82 X-0.2000 Y2.1100  
G82 X-0.2000 Y2.0100  
G82 X-0.2000 Y1.9100  
G82 X-1.7500 Y1.5000  
G82 X-2.2500 Y1.5000  
G82 X-2.5000 Y1.6500  
G82 X-2.5750 Y1.7000  
G82 X-2.5000 Y1.7500  
G82 X-2.5000 Y1.8750  
G82 X-2.5500 Y1.9500  
G82 X-2.4500 Y1.9500  
G82 X-2.6500 Y2.0000  
G82 X-2.8000 Y1.8500  
G82 X-2.8000 Y1.7500  
G82 X-2.6500 Y1.6000  
G82 X-2.5500 Y1.4500  
G82 X-2.6500 Y1.3000  
G82 X-2.5750 Y1.2500  
G82 X-2.6500 Y1.2000  
G82 X-2.8000 Y1.1500  
G82 X-2.7200 Y1.0500  
G82 X-2.9000 Y1.0000  
G82 X-2.9500 Y0.9250  
G82 X-3.0000 Y1.0000  
G82 X-3.1100 Y0.8900  
G82 X-3.1100 Y0.7900  
G82 X-2.9500 Y0.6500  
G82 X-2.8500 Y0.6500  
G82 X-2.7500 Y0.7000  
G82 X-2.6500 Y0.7000  
G82 X-2.5500 Y0.6000  
G82 X-2.5500 Y0.5000  
G82 X-2.6500 Y0.4000  
G82 X-2.7500 Y0.4000  
G82 X-2.8500 Y0.4900  
G82 X-2.9500 Y0.4900  
G82 X-2.4200 Y1.0500  
G82 X-2.8000 Y1.3500  
G82 X-2.8500 Y1.4500  
G82 X-2.9500 Y1.6000  
G82 X-3.1000 Y1.5000  
G82 X-3.1000 Y1.8000  
G82 X-2.9500 Y2.0000  
G82 X-2.5500 Y2.2900  
G82 X-2.5500 Y2.3900  
G82 X-2.4000 Y2.4300  
G82 X-2.4000 Y2.2300  
G82 X-2.4250 Y2.7100  
G82 X-2.5750 Y2.7800  
G82 X-2.5750 Y2.8800  
G82 X-2.4250 Y2.9100  
M05
G00 Z1.5000  
G00 X0.0000  Y0.0000  
M06 T03  ; 0.0354  
G01 Z0.0000  F20    
M06 
G00 Z0.0500  
M03
G04 P0.000000
G82 X-0.1500 Y2.3600  Z-0.0750 F20    R0.0500  P0.020000
G82 X-0.4500 Y2.3600  
G82 X-2.4600 Y0.9500  
G82 X-2.6300 Y0.8000  
G82 X-2.7600 Y0.9500  
G82 X-2.9300 Y0.8000  
M05
G00 Z1.5000  
G00 X0.0000  Y0.0000  
M06 T04  ; 0.0360  
G01 Z0.0000  F20    
M06 
G00 Z0.0500  
M03
G04 P0.000000
G82 X-0.6800 Y2.6600  Z-0.0750 F20    R0.0500  P0.020000
G82 X-0.6800 Y2.8100  
M05
G00 Z1.5000  
G00 X0.0000  Y0.0000  
M06 T05  ; 0.0394  
G01 Z0.0000  F20    
M06 
G00 Z0.0500  
M03
G04 P0.000000
G82 X-0.1000 Y0.2000  Z-0.0750 F20    R0.0500  P0.020000
G82 X-0.2000 Y0.2000  
G82 X-0.3000 Y0.2000  
G82 X-0.4500 Y0.2000  
G82 X-0.5500 Y0.2000  
G82 X-0.6500 Y0.2000  
G82 X-0.8000 Y0.2000  
G82 X-0.9000 Y0.2000  
G82 X-1.1500 Y0.1500  
G82 X-1.1500 Y0.2500  
G82 X-1.1500 Y0.3500  
G82 X-1.1500 Y0.4500  
G82 X-1.1500 Y0.5500  
G82 X-1.1500 Y0.6500  
G82 X-1.1500 Y0.7500  
G82 X-1.5000 Y0.6500  
G82 X-1.5000 Y0.5500  
G82 X-1.5000 Y0.4500  
G82 X-1.5000 Y0.3500  
G82 X-1.5000 Y0.2500  
G82 X-1.5000 Y0.1500  
G82 X-1.8500 Y0.3500  
G82 X-1.9500 Y0.3500  
G82 X-2.0500 Y0.3500  
G82 X-2.1500 Y0.3500  
G82 X-2.2500 Y0.3500  
G82 X-2.3500 Y0.3500  
G82 X-2.3500 Y0.6500  
G82 X-2.2500 Y0.6500  
G82 X-2.1500 Y0.6500  
G82 X-2.0500 Y0.6500  
G82 X-1.9500 Y0.6500  
G82 X-1.8500 Y0.6500  
G82 X-1.8500 Y0.9500  
G82 X-1.9500 Y0.9500  
G82 X-2.0500 Y0.9500  
G82 X-2.1500 Y0.9500  
G82 X-2.2500 Y0.9500  
G82 X-2.2500 Y1.2500  
G82 X-2.1500 Y1.2500  
G82 X-2.0500 Y1.2500  
G82 X-1.9500 Y1.2500  
G82 X-1.8500 Y1.2500  
G82 X-1.7500 Y1.2500  
G82 X-1.7500 Y1.7500  
G82 X-1.8500 Y1.7500  
G82 X-1.9500 Y1.7500  
G82 X-2.0500 Y1.7500  
G82 X-2.1500 Y1.7500  
G82 X-2.0500 Y2.0500  
G82 X-1.9500 Y2.0500  
G82 X-1.8500 Y2.0500  
G82 X-1.7500 Y2.0500  
G82 X-1.8000 Y2.3500  
G82 X-1.9000 Y2.3500  
G82 X-2.0000 Y2.3500  
G82 X-2.1000 Y2.3500  
G82 X-1.9000 Y2.5500  
G82 X-1.9000 Y2.6500  
G82 X-1.9000 Y2.7500  
G82 X-1.9000 Y2.8500  
G82 X-1.9000 Y2.9500  
G82 X-1.5500 Y2.9500  
G82 X-1.5500 Y2.8500  
G82 X-1.5500 Y2.7500  
G82 X-1.5500 Y2.6500  
G82 X-1.5500 Y2.5500  
G82 X-1.2500 Y2.6500  
G82 X-1.2500 Y2.7500  
G82 X-1.2500 Y2.8500  
G82 X-1.2500 Y2.9500  
G82 X-0.9500 Y2.9500  
G82 X-0.9500 Y2.8500  
G82 X-0.9500 Y2.7500  
G82 X-0.9500 Y2.6500  
G82 X-0.3400 Y2.6750  
G82 X-0.2400 Y2.6750  
G82 X-3.0600 Y0.5100  
G82 X-3.1600 Y0.5100  
M05
G00 Z1.5000  
G00 X0.0000  Y0.0000  
M06 T06  ; 0.0400  
G01 Z0.0000  F20    
M06 
G00 Z0.0500  
M03
G04 P0.000000
G82 X-3.0100 Y2.2500  Z-0.0750 F20    R0.0500  P0.020000
G82 X-3.0100 Y2.3500  
G82 X-3.0100 Y2.4500  
G82 X-3.0100 Y2.5500  
G82 X-3.0100 Y2.6500  
G82 X-3.0100 Y2.7500  
G82 X-3.0100 Y2.8500  
G82 X-3.0100 Y2.9500  
G82 X-3.1100 Y2.9500  
G82 X-3.1100 Y2.8500  
G82 X-3.1100 Y2.7500  
G82 X-3.1100 Y2.6500  
G82 X-3.1100 Y2.5500  
G82 X-3.1100 Y2.4500  
G82 X-3.1100 Y2.3500  
G82 X-3.1100 Y2.2500  
M05
G00 Z1.5000  
G00 X0.0000  Y0.0000  
M06 T07  ; 0.0472  
G01 Z0.0000  F20    
M06 
G00 Z0.0500  
M03
G04 P0.000000
G82 X-2.7031 Y0.1500  Z-0.0750 F20    R0.0500  P0.020000
G82 X-2.9000 Y0.1500  
G82 X-3.0969 Y0.1500  
T01 
G00 Z0.2500  
M05
M02
